X: 31299
T: Paddy Kelly's
R: reel
M: 4/4
K: Gmajor
G2 dG BGdG|G2 dG GFDE|=F2 cF AFcF|=F2 cF FECE|
G2 dG BGdG|G2 dG GFDE|=FGAc =fefd|1 cAFA GDEF:|2 cAFA G2 Bd||
g2 dg gfdf|g2 af gfde|=f2 cf Afcf|=fgaf gfdf|
g2 af gfdf|g2 ag gfde|=f2 a^f gfdc|1 BcAF G2 Bd:|2 BcAF G2 GF||
GA=Bd cABG|G2 Bd gdBG|=F2 EF CFEF|=F2 GF DEF^F|
GABd cABG|G2 FD GABc|dg g2 fdcA|1 BcAF G2 GF:|2 BcAF G2 Bc||
dg g2 ag g2|dggf dcBc|defg agfd|gbag fdcA|
dg g2 ag g2|dggf dcBc|de=fa g^fdc|1 BcAF GABc:|2 BcAF G4||

